assets/svg/icon-large-harddrive-flag-blue.svg

<?xml version="1.0" encoding="UTF-8" standalone="no"?>
<svg width="60px" height="63px" viewBox="0 0 60 63" version="1.1" xmlns="http://www.w3.org/2000/svg" xmlns:xlink="http://www.w3.org/1999/xlink">
    <!-- Generator: Sketch 3.8.3 (29802) - http://www.bohemiancoding.com/sketch -->
    <title>blue/icon-large-harddrive-flag-blue</title>
    <desc>Created with Sketch.</desc>
    <defs></defs>
    <g id="blue,-base" stroke="none" stroke-width="1" fill="none" fill-rule="evenodd">
        <g id="icons,-large-detailed-(blue)" transform="translate(-629.000000, -414.000000)" fill="#1055FF">
            <g id="blue/icon-large-harddrive-flag-blue" transform="translate(629.000000, 414.000000)">
                <g id="Shape">
                    <g id="Page-1">
                        <g id="Stratum-2016_02_16-kg-v1.2">
                            <g id="focus">
                                <g id="data">
                                    <path d="M54.9042474,36.7487248 C53.728597,32.5237107 52.6137899,29.7674419 46.6550677,29.7674419 L40.010713,29.7674419 L19.3815487,29.7674419 L12.7365397,29.7674419 C6.78043446,29.7674419 5.66170201,32.5237107 4.49063123,36.7487248 L0.480204447,51.4270177 C-0.879284437,59.8083517 4.23090212,62.8125735 8.78564784,62.5116279 L20.5277587,62.5116279 L38.8645029,62.5116279 L50.6079223,62.5116279 C55.1633222,62.8125735 60.2754715,59.8083517 58.9140199,51.4270177 L54.9042474,36.7487248 L54.9042474,36.7487248 Z M8.60704319,61.0232558 C6.06249999,61.0232557 2.08375726,59.2390986 1.93486555,55.0697674 C2.08375726,51.4836483 5.52038845,48.9900127 8.60704319,48.9900127 L9.80690008,48.9900127 L9.80690008,52.9808127 C9.80690008,53.4198007 10.1608382,53.7763557 10.6030974,53.7763557 C11.0433938,53.7763557 11.3999489,53.4198007 11.3999489,52.9808127 L11.3999489,48.9900127 L12.8863583,48.9900127 L12.8863583,52.9808127 C12.8863583,53.4198007 13.2422591,53.7763557 13.6845183,53.7763557 C14.1235063,53.7763557 14.4794071,53.4198007 14.4794071,52.9808127 L14.4794071,48.9900127 L15.9677791,48.9900127 L15.9677791,52.9808127 C15.9677791,53.4198007 16.3223716,53.7763557 16.7646308,53.7763557 C17.2068898,53.7763557 17.5601738,53.4198007 17.5601738,52.9808127 L17.5601738,48.9900127 L19.0465832,48.9900127 L19.0465832,52.9808127 C19.0465832,53.4198007 19.4057552,53.7763557 19.8447431,53.7763557 C20.2863481,53.7763557 20.6415946,53.4198007 20.6415946,52.9808127 L20.6415946,48.9900127 L51.0966318,48.9900127 C54.1826322,48.9900127 57.4511286,51.5559594 57.4511265,55.0697674 C57.4511286,59.5581394 53.3041445,61.0232557 51.097286,61.0232558 L8.60704319,61.0232558 L8.60704319,61.0232558 Z M28.2790698,29.7674419 L25.3023256,29.7674419 L25.3023256,31.255814 L10.862136,31.255814 C9.22588403,31.255814 7.51324062,32.5350632 7.0505149,34.1130972 L2.50120954,49.6275975 C2.27031235,50.4150265 2.57524423,50.607922 3.18152415,50.061067 L3.67132837,49.6192713 C4.88190948,48.5273463 7.21830381,47.627907 8.87031031,47.627907 L51.2896643,47.627907 C52.9358282,47.627907 55.1878281,48.6072519 56.3065971,49.8153353 L56.4480427,49.9680729 C56.9969084,50.5607559 57.2594326,50.4138511 57.0229663,49.6275975 L52.3569682,34.1130972 C51.8791122,32.5242198 50.1672342,31.255814 48.5260979,31.255814 L32.744186,31.255814 L32.744186,29.7674419 L29.7674419,29.7674419 L29.7674419,22.3255814 L36.6338454,20.5933665 L36.4217752,23.1661043 L56.5581395,19.5330148 L47.6175601,12.7433252 L55.8783681,0 L41.1732968,5.39231801 L41.3444815,3.1222102 L29.7674419,7.33151967 L29.7674419,5.00906298 C30.073039,4.86462589 30.494887,4.55549995 30.7810865,4.12257079 C31.1020578,3.63767485 31.2151619,3.05686963 31.0986188,2.48790976 C30.8930442,1.47837857 29.9962352,0.746258297 28.9683627,0.746258297 C28.8220151,0.746258297 28.6756675,0.761160536 28.5323767,0.790582906 C27.3562462,1.03054717 26.5954678,2.18184068 26.8346678,3.35720705 C26.9886576,4.11148964 27.5278129,4.71140031 28.2790698,4.9658847 L28.2790698,29.7674419 L28.2790698,29.7674419 Z M43.1111065,53.2039049 C42.0584513,53.2039049 41.2099157,54.056366 41.2099157,55.1050959 C41.2099157,56.1564426 42.0584513,57.0121747 43.1111065,57.0121747 C44.1631076,57.0121747 45.0109889,56.1564426 45.0109889,55.1050959 C45.0109889,54.056366 44.1631076,53.2039049 43.1111065,53.2039049 L43.1111065,53.2039049 Z M49.5048914,53.2039049 C48.4548531,53.2039049 47.602392,54.056366 47.602392,55.1050959 C47.602392,56.1564426 48.4548531,57.0121747 49.5048914,57.0121747 C50.5568924,57.0121747 51.4080449,56.1564426 51.4080449,55.1050959 C51.4080449,54.056366 50.5568924,53.2039049 49.5048914,53.2039049 L49.5048914,53.2039049 Z M28.2790698,29.7674419 L29.7674419,29.7674419 L29.7674419,41.9389575 L28.2790698,41.9401039 L28.2790698,29.7674419 L28.2790698,29.7674419 Z M41.0609569,6.88139563 L52.5211611,2.67934622 L45.7899341,13.0627681 L53.2712405,18.7439603 L38.8080439,21.3537627 L40.0926934,19.7145164 L41.0609569,6.88139563 L41.0609569,6.88139563 Z M28.804056,2.12261385 C28.8579334,2.1115327 28.912957,2.10618317 28.9683627,2.10618317 C29.3531462,2.10618317 29.6890198,2.38091932 29.7662058,2.75958905 C29.8097661,2.97318781 29.7677342,3.19060767 29.64737,3.37249142 C29.5266236,3.55475725 29.3428292,3.67856048 29.1296127,3.72250298 C29.0749711,3.73320202 29.0203295,3.73893366 28.9653059,3.73893366 C28.5801404,3.73893366 28.2438847,3.46419749 28.1666987,3.08590988 C28.0772852,2.64457433 28.3634847,2.2127915 28.804056,2.12261385 L28.804056,2.12261385 Z M29.5839399,8.77550847 L39.8313311,5.10802914 L38.8103366,18.6369698 L29.5973136,20.978532 L29.5839399,8.77550847 L29.5839399,8.77550847 Z" id="Shape"></path>
                                </g>
                            </g>
                        </g>
                    </g>
                </g>
            </g>
        </g>
    </g>
</svg>

<svg width="60" height="63" viewBox="0 0 60 63" xmlns="http://www.w3.org/2000/svg"><title>blue/icon-large-harddrive-flag-blue</title><path d="M54.904 36.749c-1.175-4.225-2.29-6.982-8.249-6.982H12.737c-5.957 0-7.075 2.757-8.246 6.982L.48 51.427c-1.36 8.381 3.75 11.386 8.305 11.085h41.822c4.555.3 9.667-2.704 8.306-11.085l-4.01-14.678zM8.607 61.023c-2.545 0-6.523-1.784-6.672-5.953.149-3.586 3.585-6.08 6.672-6.08h1.2v3.99a.796.796 0 1 0 1.593 0v-3.99h1.486v3.99a.796.796 0 0 0 1.593 0v-3.99h1.489v3.99a.795.795 0 1 0 1.592 0v-3.99h1.487v3.99a.798.798 0 0 0 1.595 0v-3.99h30.455c3.086 0 6.354 2.566 6.354 6.08 0 4.488-4.147 5.953-6.354 5.953H8.607zm19.672-31.256h-2.977v1.489h-14.44c-1.636 0-3.349 1.28-3.811 2.857L2.5 49.628c-.23.787.074.98.68.433l.49-.442c1.21-1.092 3.547-1.991 5.2-1.991H51.29c1.646 0 3.898.98 5.017 2.187l.141.153c.549.593.811.446.575-.34l-4.666-15.515c-.478-1.589-2.19-2.857-3.83-2.857H32.743v-1.489h-2.977v-7.441l6.867-1.733-.212 2.573 20.136-3.633-8.94-6.79L55.878 0 41.173 5.392l.171-2.27-11.577 4.21V5.009a2.648 2.648 0 0 0 1.014-.886 2.158 2.158 0 0 0 .318-1.635A2.182 2.182 0 0 0 28.532.79a2.179 2.179 0 0 0-1.697 2.566c.154.754.693 1.354 1.444 1.609v24.801zm14.832 23.437a1.904 1.904 0 1 0 0 3.808c1.052 0 1.9-.856 1.9-1.907a1.9 1.9 0 0 0-1.9-1.901zm6.394 0a1.903 1.903 0 1 0 .001 3.806 1.903 1.903 0 0 0-.001-3.806zM28.279 29.767h1.488V41.94l-1.488.001V29.767zM41.061 6.881l11.46-4.202-6.731 10.384 7.481 5.681-14.463 2.61 1.285-1.64.968-12.833zM28.804 2.123a.815.815 0 1 1 .326 1.597.815.815 0 0 1-.326-1.597zm.78 6.653L39.83 5.108l-1.02 13.529-9.214 2.342-.013-12.203z" fill="#1055FF" fill-rule="evenodd"/></svg>
